icons/fill-new-drink.svg

<svg xmlns="http://www.w3.org/2000/svg" width="32px" height="32px" viewBox="0 0 32 32" version="1.1">
    <title>fill-new-drink</title>
    <g id="fill-new-drink" stroke-width="1" fill-rule="evenodd">
        <path d="M24,3 C24.5522847,3 25,3.44771525 25,4 L25,8 L27,8 C28.6568542,8 30,9.34314575 30,11 L30,18 C30,19.6568542 28.6568542,21 27,21 L25,21 L25,25 C25,27.209139 23.209139,29 21,29 L7,29 C4.790861,29 3,27.209139 3,25 L3,4 C3,3.44771525 3.44771525,3 4,3 L24,3 Z M25,19 L27,19 C27.5522847,19 28,18.5522847 28,18 L28,11 C28,10.4477153 27.5522847,10 27,10 L25,10 L25,19 Z" id="&#24418;&#29366;" fill-rule="nonzero" />
    </g>
</svg>

<svg xmlns="http://www.w3.org/2000/svg" viewBox="0 0 32 32"><path fill="currentColor" d="M24 3a1 1 0 0 1 1 1v4h2a3 3 0 0 1 3 3v7a3 3 0 0 1-3 3h-2v4a4 4 0 0 1-4 4H7a4 4 0 0 1-4-4V4a1 1 0 0 1 1-1zm1 16h2a1 1 0 0 0 1-1v-7a1 1 0 0 0-1-1h-2z"/></svg>
